!!!!SEGMENT: Ano3012-Le_berger_et_la_bergere.krn
!!!id: Ano3012
!!!jrpid: Mou3014
!!!AGN: Chanson
!!!voices: 5
!!!COM: Anonymous
!!!OTL: Le berger et la bergere
**kern	**kern	**kern	**kern	**kern
*part5	*part4	*part3	*part2	*part1
*staff5	*staff4	*staff3	*staff2	*staff1
*I"Bassus II	*I"Bassus I	*I"Tenor	*I"Altus	*I"Superius
*I'B. II	*I'B. I	*I'T	*I'A	*I'S
*clefF4	*clefF4	*clefGv2	*clefGv2	*clefG2
*k[]	*k[]	*k[]	*k[]	*k[]
*C:	*C:	*C:	*C:	*C:
*M2/1	*M2/1	*M2/1	*M2/1	*M2/1
*met(C|)	*met(C|)	*met(C|)	*met(C|)	*met(C|)
0r	0r	1r	0r	2d
.	.	.	.	2d
.	.	2D	.	[1a
.	.	2D	.	.
=1	=1	=1	=1	=1
0r	2D	2.A	0r	2a]
.	2D	.	.	2a
.	.	4B	.	.
.	2.A	4c	.	2a
.	.	4d	.	.
.	.	4e	.	2cc
.	4A	4c	.	.
=2	=2	=2	=2	=2
0r	2B	2d	1r	2b
.	2c	2A	.	2.a
.	1d	1B	2G	.
.	.	.	.	4g
.	.	.	2G	2g
=3	=3	=3	=3	=3
1r	2.D	0A	2.d	2.f
.	4C	.	4e	4e
2D	4D	.	[1f	4d
.	4E	.	.	4c
2D	[2F	.	.	2d
=4	=4	=4	=4	=4
1.A	2F]	1r	2f]	0c
.	4E	.	2f	.
.	4D	.	.	.
.	2C	2r	1e	.
2A	2AA	2A	.	.
=5	=5	=5	=5	=5
2F	1D	2A	1d	1r
4E	.	2d	.	.
4D	.	.	.	.
2E	1r	2c	2r	2r
2D	.	2d	2A	2f
=6	=6	=6	=6	=6
0r	0r	0r	1.c	2.e
.	.	.	.	4f
.	.	.	.	2g
.	.	.	2c	2a
=7	=7	=7	=7	=7
2r	2r	0r	2B	2g
2AA	2F	.	2A	2a
[1C	4E	.	1r	2.g
.	4D	.	.	.
.	4E	.	.	.
.	4F	.	.	4f
=8	=8	=8	=8	=8
2C]	2G	1r	0r	1e
2C	2A	.	.	.
2BB	2G	2r	.	2r
4AA	2A	[2c	.	[2e
4BB	.	.	.	.
=9	=9	=9	=9	=9
4C	1AA	2c]	0r	2e]
4D	.	.	.	.
4E	.	2c	.	2e
4F	.	.	.	.
2G	1r	2B	.	2d
[2A	.	2A	.	2c
=10	=10	=10	=10	=10
4A]	1r	1d	0r	2B
8G#iL	.	.	.	.
8F#iJ	.	.	.	.
2G#i	.	.	.	2B
2A	2r	2.c	.	1A
[2Fny	[2A	.	.	.
.	.	8BL	.	.
.	.	8AJ	.	.
=11	=11	=11	=11	=11
2F]	2A]	1A	1.f	0r
2E	2c	.	.	.
2D	2B	1r	.	.
2D	[2A	.	2f	.
=12	=12	=12	=12	=12
2C	4A]	1r	2e	0r
.	4G#i	.	.	.
2BB	4G#i	.	2d	.
.	8F#iL	.	.	.
.	8G#iJ	.	.	.
1AA	1A	2r	2.c	.
.	.	[2A	.	.
.	.	.	4B	.
=13	=13	=13	=13	=13
2r	0AA	4A]	2A	1.a
.	.	4G	.	.
1A	.	4A	1e	.
.	.	4B	.	.
.	.	4c	.	.
.	.	4d	.	.
2A	.	4e	2c	2cc
.	.	4c	.	.
=14	=14	=14	=14	=14
2G	0r	2.d	2g	2b
2D	.	.	2f	2a
.	.	4A	.	.
2E	.	2c	2e	2a
2E	.	2B	2e	2g#i
=15	=15	=15	=15	=15
[0AA	2r	1A	[0e	1a
.	1A	.	.	.
.	.	1r	.	2r
.	2A	.	.	2a
=16	=16	=16	=16	=16
1AA]	2.c	2r	0e]	2a
.	.	1A	.	1cc
.	4B	.	.	.
1r	2A	.	.	.
.	2G	2B	.	2b
=17	=17	=17	=17	=17
1r	2F	2.c	0r	2a
.	2E	.	.	2g
.	.	4B	.	.
2r	1r	2.A	.	2f
[2A	.	.	.	2e
.	.	4G	.	.
=18	=18	=18	=18	=18
2A]	1r	2F	2r	0r
2B	.	2E	1e	.
2.c	2AA	1r	.	.
.	2AA	.	2e	.
4B	.	.	.	.
=19	=19	=19	=19	=19
2A	2AA	0r	2f	0r
2G	2C	.	2e	.
2F	2D	.	2d	.
2E	2AA	.	2c	.
=20	=20	=20	=20	=20
2r	1E	1r	2B	1.e
1AA	.	.	2A	.
.	1r	2A	2c	.
2D	.	2A	2d	2f
=21	=21	=21	=21	=21
2E	0r	2G	2B	2g
2AA	.	2A	2c	2e
2C	.	2G	2c	2e
2D	.	2F	2A	2d
=22	=22	=22	=22	=22
1AA	2r	2E	1A	2e
.	2A	2r	.	2c
1r	2.G	1r	1r	2.e
.	4D	.	.	4d
=23	=23	=23	=23	=23
1r	2F	0r	1r	2d
.	2E	.	.	2c#i
2r	1D	.	2r	1d
2A	.	.	2f	.
=24	=24	=24	=24	=24
2.G	0r	0r	2.e	0r
4D	.	.	4d	.
2F	.	.	2d	.
2E	.	.	2c	.
=25	=25	=25	=25	=25
2D	1r	2r	2d	2r
2D	.	2F	2A	2f
2C	2r	2.G	2c	2.e
2GG	2D	.	2B	.
.	.	4D	.	4d
=26	=26	=26	=26	=26
2D	2D	2F	2.A	2d
2AA	1A	2E	.	2c#i
.	.	.	4G	.
1D	.	1D	2F	2d
.	2A	.	4E	2f
.	.	.	4D	.
=27	=27	=27	=27	=27
1r	2c	1r	1A	2e
.	2c	.	.	2e
2GG	1B	2r	1r	[1d
2GG	.	2D	.	.
=28	=28	=28	=28	=28
2.D	1A	2D	0r	1d]
.	.	1A	.	.
4E	.	.	.	.
2F	1r	.	.	1r
2F	.	2A	.	.
=29	=29	=29	=29	=29
1E	0r	2c	2G	1r
.	.	2c	2G	.
[1D	.	1B	2.d	2r
.	.	.	.	2d
.	.	.	4e	.
=30	=30	=30	=30	=30
1D]	0r	1A	1.f	2d
.	.	.	.	1a
2D	.	1r	.	.
2D	.	.	2f	2a
=31	=31	=31	=31	=31
2AA	1r	0r	1e	2cc
2C	.	.	.	2cc
4GG	2r	.	1d	1b
4AA	.	.	.	.
4BB	[2D	.	.	.
4C	.	.	.	.
=32	=32	=32	=32	=32
1D	2D]	2d	0r	1a
.	2F	2d	.	.
1r	2E	2.c	.	1r
.	2C	.	.	.
.	.	4B	.	.
=33	=33	=33	=33	=33
0r	2D	2A	2.d	2a
.	2BB	2G	.	2b
.	.	.	4d	.
.	1AA	1A	2c	2.cc
.	.	.	2c	.
.	.	.	.	4b
=34	=34	=34	=34	=34
0r	1r	0r	2d	2a
.	.	.	2B	2g
.	2r	.	1A	2a
.	[2A	.	.	2a
=35	=35	=35	=35	=35
1D	2A]	0r	0r	2f
.	2B	.	.	2f
2E	2.c	.	.	2e
[2F	.	.	.	[2a
.	4B	.	.	.
=36	=36	=36	=36	=36
2F]	2A	1r	0r	4a]
.	.	.	.	4f
2E	2G	.	.	2g
2D	2F	1A	.	1a
2C	2E	.	.	.
=37	=37	=37	=37	=37
2BB	2r	2B	2r	0r
2AA	1C	1c	1e	.
1r	.	.	.	.
.	2GG	2B	2g	.
=38	=38	=38	=38	=38
0r	2D	2.A	2f	1r
.	2C	.	2e	.
.	.	4G	.	.
.	2D	2F	2d	1a
.	2AA	2E	2c	.
=39	=39	=39	=39	=39
2r	0r	0r	2B	2b
1A	.	.	2A	1cc
.	.	.	1e	.
2G	.	.	.	2b
=40	=40	=40	=40	=40
2F	0r	1r	2r	2a
2E	.	.	2B	2g
2D	.	2A	2d	2f
2AA	.	2A	2c	2e
=41	=41	=41	=41	=41
2E	2r	2G	2B	2r
2AA	2E	2A	2e	1c
1r	2.A	2F	2e	.
.	.	2F	2d	2A
.	4A	.	.	.
=42	=42	=42	=42	=42
0r	2G	1E	1e	2B
.	2E	.	.	2e
.	2F	1r	1r	2e
.	2F	.	.	2d
=43	=43	=43	=43	=43
2r	1E	0r	2r	1e
2C	.	.	2c	.
2.G	1r	.	2.e	1r
4F	.	.	4d	.
=44	=44	=44	=44	=44
2D	1r	1r	2d	1r
2E	.	.	2c#i	.
2D	2r	2r	2d	2r
2GG	2D	2G	2d	2B
=45	=45	=45	=45	=45
2.C	2.E	2.G	2.c	2.e
4D	4F	4F	4B	4d
2BB	2G	2D	2G	2d
2AA	2C	2E	2A	2c
=46	=46	=46	=46	=46
2D	2F	2D	2A	2d
2GG	2D	2G	2B	2B
2.C	2.E	2.G	2.c	2.e
4D	4F	4F	4B	4d
=47	=47	=47	=47	=47
2BB	2G	2D	2G	2d
2AA	2C	2E	1A	2c#i
1D	2F	[1Dl	.	[1dl
.	2D	.	4G	.
.	.	.	4F	.
=48	=48	=48	=48	=48
1GG	1.B-X	0D_	2G	0d_
.	.	.	2D	.
2GG	.	.	2.d	.
2FF	2A	.	.	.
.	.	.	4c	.
=49	=49	=49	=49	=49
2GG	2G	0D_	2B	0d_
2GG	2G	.	2B	.
[1Dl	[1F#Xl	.	[1Al	.
=50	=50	=50	=50	=50
00D]	00F#]	00D]	00A]	00d]
==	==	==	==	==
*-	*-	*-	*-	*-
!!!system-decoration: [*]
!!!RDF**kern: i = editorial accidental
!!!RDF**kern: l = terminal long
!!!ENC: Benjamin Ory
!!!END: 2024/5/21
!!!EED: Benjamin Ory
!!!EEV: 2024/05/21
!!!YEC: Copyright 2024 Benjamin Ory, All Rights Reserved
!!!ONB: Translated from MusicXML on 2024/05/21